assets/Woman playing water polo/Dark/Flat/woman_playing_water_polo_flat_dark.svg

<svg width="32" height="32" viewBox="0 0 32 32" fill="none" xmlns="http://www.w3.org/2000/svg">
<path d="M2 27.92H30.02V18.15C29.04 17.89 27.95 18.1 27.14 18.75L25.97 19.7099C25.12 20.4099 23.89 20.4099 23.03 19.7099L21.86 18.75C20.78 17.87 19.18 17.8 18.02 18.58L16.84 19.3799C16.05 19.9099 15.01 19.9099 14.22 19.3799L13.04 18.58C11.88 17.79 10.28 17.86 9.2 18.75L8.03 19.7099C7.18 20.4099 5.95 20.4099 5.09 19.7099L3.92 18.75C3.38 18.3 2.69 18.06 2 18.04V27.92Z" fill="#26C9FC"/>
<path d="M20.6734 13.312L20.7899 13.33L21.0799 14.53C21.3299 15.55 20.4599 16.49 19.4299 16.33L14.5699 15.58C13.5599 15.42 13.0199 14.3 13.5199 13.41L14.1399 12.3L14.3651 12.3349C14.4349 11.8645 14.4886 11.4272 14.5381 11.024C14.8688 8.32974 15.0128 7.15647 18.5501 7.79001C21.6931 8.35294 21.45 9.50127 20.9742 11.7493C20.8745 12.2203 20.7645 12.7397 20.6734 13.312Z" fill="black"/>
<path d="M27.5001 13.3799C27.3701 13.1799 27.1301 13.0999 26.9101 13.1799C26.7901 12.9299 26.6201 12.6999 26.4201 12.4899C26.2301 12.2899 25.9101 12.2899 25.7101 12.4799C25.7001 12.4899 25.7001 12.4899 25.6901 12.4999L25.6801 12.4899C25.4901 12.2899 25.1701 12.2899 24.9701 12.4799C24.8501 12.5999 24.8001 12.7499 24.8301 12.9099C24.6301 12.7999 24.3701 12.8399 24.2101 13.0199C24.0301 13.2199 24.0601 13.5199 24.2401 13.7099C24.5401 14.0299 24.7101 14.4399 24.7101 14.8899V15.0199C24.7101 15.1099 24.6101 15.1499 24.5401 15.0999L24.3501 14.9299C24.1201 14.7199 23.7601 14.7399 23.5601 14.9699C23.3501 15.1999 23.3701 15.5599 23.6001 15.7599L24.4501 16.5299C24.6001 16.6599 24.6801 16.8599 24.6801 17.0599V18.8499L23.9301 17.7999C23.3301 16.7699 22.2701 16.0899 21.0901 15.9699L8.29011 14.6299C8.17011 14.6199 8.09011 14.5099 8.11011 14.3999L8.97011 8.3999L3.61011 7.6499V8.0599C3.61011 8.7299 3.96011 9.3599 4.53011 9.7199L5.20011 10.1899C5.47011 10.3599 5.62011 10.6799 5.57011 10.9999L5.02011 14.8299C4.84011 16.1199 5.73011 17.3199 7.01011 17.5199C7.04011 17.5199 7.06011 17.5299 7.09011 17.5299L11.5301 18.0599C11.7901 18.0899 11.9701 18.3399 11.9001 18.5899L10.1001 25.3599C10.0201 25.6799 10.2601 25.9799 10.5801 25.9799H18.4301C18.7201 25.9799 18.9701 25.7899 19.0401 25.5099L20.3801 20.4399L20.5501 19.8399C20.6001 19.6699 20.7201 19.5199 20.8801 19.4599C21.1501 19.3499 21.4401 19.4599 21.5801 19.6999L25.0001 24.2099C25.0201 24.2299 25.0301 24.2499 25.0501 24.2799L25.0601 24.2899C25.3601 24.6599 25.8201 24.8899 26.3301 24.8899C27.2201 24.8799 27.9201 24.1299 27.9201 23.2399L27.9301 14.8699C27.9301 14.3299 27.7801 13.8199 27.5001 13.3799Z" fill="#573739"/>
<path d="M6.75 9.5C8.82107 9.5 10.5 7.82107 10.5 5.75C10.5 3.67893 8.82107 2 6.75 2C4.67893 2 3 3.67893 3 5.75C3 7.82107 4.67893 9.5 6.75 9.5Z" fill="#F9C23C"/>
<path d="M8.50005 4.14C7.46005 4.41 6.86005 5.23 6.66005 5.54C6.47005 5.53 6.09005 5.48 5.67005 5.27C5.89005 4.9 6.49005 4.02 7.62005 3.52C8.53005 3.12 9.27005 3.15 9.46005 3.16C9.30005 3 9.14005 2.85 8.96005 2.72C8.58005 2.76 8.04005 2.85 7.44005 3.12C6.20005 3.66 5.54005 4.6 5.29005 5.03C5.07005 4.87 4.85005 4.65 4.66005 4.36C4.85005 4.05 5.48005 3.12 6.64005 2.51C7.02005 2.31 7.44005 2.2 7.74005 2.14C7.43005 2.05 7.09005 2 6.75005 2C6.72005 2 6.70005 2 6.68005 2C6.60005 2.04 6.52005 2.07 6.44005 2.12C5.38005 2.68 4.73005 3.47 4.42005 3.92C4.31005 3.67 4.22005 3.38 4.16005 3.04C4.03005 3.16 3.91005 3.3 3.80005 3.44C3.90005 3.83 4.04005 4.16 4.20005 4.44C4.21005 4.47 4.22005 4.5 4.24005 4.52C4.60005 5.1 5.05005 5.44 5.43005 5.64C5.92005 5.9 6.38005 5.97 6.62005 5.98C6.67005 6.15 6.74005 6.47 6.76005 6.84C5.82005 6.82 5.07005 6.58 4.40005 6.09C3.49005 5.41 3.27005 4.48 3.27005 4.46C3.27005 4.44 3.26005 4.42 3.25005 4.4C3.16005 4.63 3.10005 4.87 3.05005 5.12C3.24005 5.5 3.57005 6.01 4.14005 6.43C5.07005 7.12 6.03005 7.26 6.74005 7.28C6.71005 7.58 6.63005 7.9 6.47005 8.21C4.01005 7.93 3.25005 6.75 3.24005 6.73C3.21005 6.68 3.16005 6.64 3.10005 6.63C3.19005 6.98 3.32005 7.3 3.49005 7.6C3.99005 7.98 4.84005 8.43 6.19005 8.62C5.99005 8.85 5.74005 9.07 5.40005 9.24C5.58005 9.31 5.77005 9.37 5.97005 9.41C6.32005 9.16 6.58005 8.88 6.76005 8.58C6.77005 8.57 6.78005 8.55 6.78005 8.54C7.04005 8.11 7.14005 7.66 7.18005 7.28C7.24005 6.61 7.09005 6.02 7.02005 5.8C7.11005 5.66 7.33005 5.34 7.68005 5.06C7.88005 5.41 8.27005 6.23 8.19005 7.22C8.09005 8.43 7.52005 9.12 7.10005 9.48C7.36005 9.45 7.62005 9.4 7.86005 9.33C8.22005 8.87 8.56005 8.2 8.64005 7.25C8.73005 6.11 8.28005 5.19 8.05005 4.8C8.22005 4.7 8.41005 4.62 8.61005 4.57C8.73005 4.54 8.84005 4.52 8.95005 4.51C9.19005 4.98 9.99005 6.76 9.28005 8.5C9.54005 8.26 9.77005 7.98 9.96005 7.67C10.16 6.3 9.70005 5.07 9.44005 4.5C9.87005 4.53 10.19 4.66 10.36 4.75C10.3 4.55 10.23 4.36 10.15 4.18C9.76005 4.06 9.18005 3.97 8.50005 4.14Z" fill="#FFF478"/>
<path d="M21.51 16.0299C21.38 15.9999 21.25 15.9799 21.12 15.9699L19.69 15.8299L19.59 16.3799C19.34 17.7899 17.99 18.7399 16.58 18.4899C15.17 18.2399 14.22 16.8899 14.47 15.4799L14.4922 15.2578L12.8164 15.082L11.92 18.4799C11.92 18.5099 11.91 18.5399 11.91 18.5699L11.62 19.6299L10.1 25.3599C10.02 25.6799 10.26 25.9799 10.58 25.9799H18.43C18.72 25.9799 18.97 25.7899 19.04 25.5099L20.38 20.4399L21.51 16.0299Z" fill="#8B62BF"/>
<path d="M29.97 23.42C29 23.18 27.93 23.39 27.14 24.03L25.97 24.99C25.12 25.69 23.89 25.69 23.03 24.99L21.86 24.03C20.78 23.15 19.18 23.08 18.02 23.86L16.84 24.66C16.05 25.19 15.01 25.19 14.22 24.66L13.04 23.86C11.88 23.07 10.28 23.14 9.2 24.03L8.03 24.99C7.18 25.69 5.95 25.69 5.09 24.99L3.92 24.03C3.38 23.58 2.69 23.34 2 23.32V29.97H29.97V23.42Z" fill="#0084CE"/>
<path d="M20.46 10.4374L18.54 10.0974C17.77 9.95738 17 9.46983 16.69 8.76983C16.64 8.64983 16.48 8.63983 16.41 8.74983L16.34 8.84983C16.14 9.15983 15.84 9.37983 15.49 9.45983C15.47 9.46983 15.45 9.46983 15.42 9.47983C15.27 9.51983 14.9 9.68983 14.78 10.2598L14.52 12.1898C14.29 13.8998 15.39 15.2698 16.98 15.5598C18.57 15.8398 20.08 14.9398 20.46 13.2598L20.86 11.4498C21 10.6398 20.7188 10.5077 20.46 10.4374Z" fill="#573739"/>
<path d="M16.14 11.5199C16.1952 11.5199 16.24 11.4752 16.24 11.4199C16.24 11.3647 16.1952 11.3199 16.14 11.3199C16.0848 11.3199 16.04 11.3647 16.04 11.4199C16.04 11.4752 16.0848 11.5199 16.14 11.5199Z" fill="white"/>
<path d="M19.2199 6.83988C20.1499 6.99988 20.9599 7.54988 21.4499 8.35988C21.9299 9.15988 22.0499 10.1199 21.7699 11.0199L21.3799 12.6599C21.3031 12.9799 21.1116 13.2425 20.8605 13.4138C20.6707 14.1869 20.2589 14.8367 19.67 15.3001C19.08 15.7601 18.36 16.0101 17.58 16.0101C17.36 16.0101 17.14 15.9901 16.92 15.9501C16.04 15.7901 15.27 15.3201 14.75 14.6401C14.24 13.9664 14.0078 13.1076 14.1069 12.224C13.9245 11.9773 13.8314 11.6668 13.8699 11.3399L14.0499 9.64988C14.1199 8.66988 14.5599 7.80988 15.2999 7.22988C16.0299 6.65988 16.9499 6.43988 17.8799 6.59988L19.2199 6.83988ZM14.5033 12.4737C14.4291 14.0462 15.4921 15.2863 16.99 15.5501C17.18 15.5801 17.38 15.6001 17.57 15.6001C18.93 15.6001 20.13 14.7301 20.46 13.2501L20.5 13.0501L20.5069 13.0512L20.9699 10.8399C21.0999 10.1199 20.6099 9.42988 19.8899 9.29988L16.4199 8.68988C15.6999 8.55988 15.0099 9.04988 14.8799 9.76988L14.5033 12.4737Z" fill="#00A6ED"/>
<path d="M16.1194 10.72C16.4594 10.78 16.6894 11.06 16.8194 11.36C16.6844 11.3754 16.5531 11.3888 16.4232 11.4021C16.1301 11.4322 15.8444 11.4615 15.5394 11.51L15.2994 11.2C15.1994 11.07 15.2394 10.88 15.3894 10.81C15.6094 10.71 15.8794 10.68 16.1194 10.72Z" fill="black"/>
<path d="M19.2794 11.28C18.9394 11.22 18.6194 11.41 18.3994 11.64C18.5196 11.7016 18.6379 11.7604 18.7552 11.8187C19.0184 11.9495 19.2765 12.0778 19.5394 12.23L19.8794 12.02C20.0194 11.93 20.0394 11.74 19.9294 11.62C19.7594 11.45 19.5194 11.33 19.2794 11.28Z" fill="black"/>
<path d="M15.2801 11.3301C15.4401 10.9801 15.8301 10.7601 16.2301 10.8301C16.6501 10.9101 16.9401 11.2701 16.9501 11.6701C16.9501 11.7601 16.8701 11.8301 16.7801 11.8101L15.4101 11.5701C15.3001 11.5501 15.2301 11.4301 15.2801 11.3301Z" fill="white"/>
<path d="M19.8899 12.1399C19.8599 11.7599 19.5699 11.4199 19.1699 11.3499C18.7499 11.2799 18.3499 11.5099 18.2099 11.8899C18.1799 11.9699 18.2299 12.0599 18.3199 12.0799L19.6899 12.3199C19.7999 12.3399 19.8999 12.2499 19.8899 12.1399Z" fill="white"/>
<path d="M15.6899 11.4701C15.7399 11.1701 16.0299 10.9701 16.3299 11.0201C16.6299 11.0701 16.8299 11.3601 16.7899 11.6701C16.7799 11.7201 16.7599 11.7701 16.7399 11.8101L15.6799 11.6201C15.6799 11.5701 15.6799 11.5201 15.6899 11.4701ZM19.4601 12.1301C19.5101 11.8301 19.3101 11.5401 19.0101 11.4901C18.7101 11.4401 18.4201 11.6401 18.3601 11.9301C18.3501 11.9801 18.3501 12.0301 18.3501 12.0801L19.4101 12.2701C19.4401 12.2301 19.4501 12.1801 19.4601 12.1301Z" fill="#7D4533"/>
<path d="M16.2899 11.25C16.4699 11.28 16.5799 11.45 16.5499 11.62C16.5399 11.67 16.5099 11.72 16.4799 11.76L15.9299 11.66C15.9199 11.61 15.9099 11.56 15.9199 11.51C15.9499 11.33 16.1199 11.22 16.2899 11.25ZM18.9701 11.7199C18.8001 11.6899 18.6301 11.8099 18.6001 11.9799C18.5901 12.0399 18.6001 12.0899 18.6201 12.1299L19.1701 12.2299C19.2001 12.1899 19.2201 12.1399 19.2301 12.0899C19.2601 11.9199 19.1401 11.7499 18.9701 11.7199Z" fill="black"/>
<path d="M16.18 11.32C16.18 11.3752 16.1352 11.42 16.08 11.42C16.0248 11.42 15.98 11.3752 15.98 11.32C15.98 11.2647 16.0248 11.22 16.08 11.22C16.1352 11.22 16.18 11.2647 16.18 11.32ZM18.8799 11.7899C18.8799 11.8452 18.8352 11.8899 18.7799 11.8899C18.7247 11.8899 18.6799 11.8452 18.6799 11.7899C18.6799 11.7347 18.7247 11.6899 18.7799 11.6899C18.8352 11.6899 18.8799 11.7347 18.8799 11.7899Z" fill="white"/>
<path d="M17.3899 11.7199L16.8899 12.6899C16.7899 12.8899 16.9099 13.1299 17.1299 13.1699L17.5999 13.2499C17.8199 13.2899 18.0199 13.0999 17.9899 12.8799L17.8499 11.7999C17.8199 11.5699 17.4999 11.5099 17.3899 11.7199Z" fill="#3D2123"/>
<path d="M17.2199 13.79C16.8899 13.73 16.5999 13.6 16.3699 13.42C16.2899 13.36 16.1799 13.44 16.2199 13.53C16.3799 13.9 16.7099 14.19 17.1399 14.26C17.5699 14.34 17.9799 14.18 18.2499 13.89C18.3199 13.82 18.2399 13.7 18.1499 13.73C17.8699 13.82 17.5499 13.84 17.2199 13.79Z" fill="#290118"/>
<path d="M18.9287 10.2878C18.8281 10.2829 18.7425 10.3606 18.7376 10.4612C18.7328 10.5619 18.8104 10.6474 18.9111 10.6523C19.1839 10.6655 19.3998 10.7578 19.548 10.8474C19.622 10.8922 19.6784 10.9358 19.7156 10.9675C19.7341 10.9833 19.7477 10.996 19.7562 11.0042L19.765 11.0129L19.7664 11.0144C19.8348 11.0879 19.9498 11.0923 20.0236 11.0241C20.0977 10.9558 20.1023 10.8403 20.0339 10.7663L20.0329 10.7651L20.0313 10.7634L20.0264 10.7584C20.0225 10.7543 20.0171 10.7489 20.0102 10.7423C19.9966 10.729 19.9772 10.711 19.9523 10.6898C19.9026 10.6474 19.8302 10.5916 19.7368 10.5352C19.55 10.4223 19.2758 10.3046 18.9287 10.2878Z" fill="black"/>
<path d="M15.6204 9.98573L15.6183 9.98677C15.5375 9.99761 15.4917 10.1433 15.5374 10.2329C15.5832 10.3226 15.6924 10.3585 15.7821 10.3128L15.784 10.3119L15.7952 10.3068C15.806 10.302 15.8231 10.2948 15.8458 10.2864C15.8914 10.2696 15.9591 10.2481 16.0438 10.2315C16.2132 10.1983 16.4469 10.1852 16.7067 10.2645C16.803 10.2939 16.905 10.2396 16.9344 10.1432C16.9638 10.0468 16.9095 9.94486 16.8131 9.91546C16.4829 9.81472 16.1866 9.83165 15.9736 9.87343C15.8669 9.89433 15.7803 9.92161 15.7193 9.94414C15.6888 9.95542 15.6645 9.96557 15.6473 9.97322C15.6387 9.97705 15.6317 9.98027 15.6267 9.9827L15.6204 9.98573Z" fill="black"/>
</svg>

<svg xmlns="http://www.w3.org/2000/svg" width="32" height="32" fill="none"><path fill="#26C9FC" d="M2 27.92h28.02v-9.77a3.29 3.29 0 0 0-2.88.6l-1.17.96c-.85.7-2.08.7-2.94 0l-1.17-.96c-1.08-.88-2.68-.95-3.84-.17l-1.18.8c-.79.53-1.83.53-2.62 0l-1.18-.8c-1.16-.79-2.76-.72-3.84.17l-1.17.96c-.85.7-2.08.7-2.94 0l-1.17-.96c-.54-.45-1.23-.69-1.92-.71v9.88Z"/><path fill="#000" d="m20.673 13.312.117.018.29 1.2c.25 1.02-.62 1.96-1.65 1.8l-4.86-.75a1.47 1.47 0 0 1-1.05-2.17l.62-1.11.225.035c.07-.47.124-.908.173-1.311.33-2.694.475-3.868 4.012-3.234 3.143.563 2.9 1.711 2.424 3.96-.1.47-.21.99-.3 1.562Z"/><path fill="#573739" d="M27.5 13.38a.495.495 0 0 0-.59-.2c-.12-.25-.29-.48-.49-.69-.19-.2-.51-.2-.71-.01l-.02.02-.01-.01c-.19-.2-.51-.2-.71-.01-.12.12-.17.27-.14.43a.507.507 0 0 0-.62.11c-.18.2-.15.5.03.69.3.32.47.73.47 1.18v.13c0 .09-.1.13-.17.08l-.19-.17a.556.556 0 0 0-.79.04c-.21.23-.19.59.04.79l.85.77c.15.13.23.33.23.53v1.79l-.75-1.05a3.728 3.728 0 0 0-2.84-1.83l-12.8-1.34a.198.198 0 0 1-.18-.23l.86-6-5.36-.75v.41c0 .67.35 1.3.92 1.66l.67.47c.27.17.42.49.37.81l-.55 3.83a2.39 2.39 0 0 0 1.99 2.69c.03 0 .05.01.08.01l4.44.53c.26.03.44.28.37.53l-1.8 6.77c-.08.32.16.62.48.62h7.85c.29 0 .54-.19.61-.47l1.34-5.07.17-.6a.559.559 0 0 1 1.03-.14L25 24.21c.02.02.03.04.05.07l.01.01c.3.37.76.6 1.27.6.89-.01 1.59-.76 1.59-1.65l.01-8.37c0-.54-.15-1.05-.43-1.49Z"/><path fill="#F9C23C" d="M6.75 9.5a3.75 3.75 0 1 0 0-7.5 3.75 3.75 0 0 0 0 7.5Z"/><path fill="#FFF478" d="M8.5 4.14c-1.04.27-1.64 1.09-1.84 1.4a2.57 2.57 0 0 1-.99-.27c.22-.37.82-1.25 1.95-1.75.91-.4 1.65-.37 1.84-.36-.16-.16-.32-.31-.5-.44-.38.04-.92.13-1.52.4-1.24.54-1.9 1.48-2.15 1.91-.22-.16-.44-.38-.63-.67.19-.31.82-1.24 1.98-1.85.38-.2.8-.31 1.1-.37-.31-.09-.65-.14-.99-.14h-.07c-.08.04-.16.07-.24.12a5.757 5.757 0 0 0-2.02 1.8c-.11-.25-.2-.54-.26-.88-.13.12-.25.26-.36.4.1.39.24.72.4 1 .01.03.02.06.04.08.36.58.81.92 1.19 1.12.49.26.95.33 1.19.34.05.17.12.49.14.86-.94-.02-1.69-.26-2.36-.75-.91-.68-1.13-1.61-1.13-1.63 0-.02-.01-.04-.02-.06-.09.23-.15.47-.2.72.19.38.52.89 1.09 1.31.93.69 1.89.83 2.6.85-.03.3-.11.62-.27.93-2.46-.28-3.22-1.46-3.23-1.48a.207.207 0 0 0-.14-.1c.09.35.22.67.39.97.5.38 1.35.83 2.7 1.02-.2.23-.45.45-.79.62.18.07.37.13.57.17.35-.25.61-.53.79-.83.01-.01.02-.03.02-.04.26-.43.36-.88.4-1.26.06-.67-.09-1.26-.16-1.48.09-.14.31-.46.66-.74.2.35.59 1.17.51 2.16-.1 1.21-.67 1.9-1.09 2.26.26-.03.52-.08.76-.15.36-.46.7-1.13.78-2.08.09-1.14-.36-2.06-.59-2.45a2.214 2.214 0 0 1 .9-.29c.24.47 1.04 2.25.33 3.99.26-.24.49-.52.68-.83.2-1.37-.26-2.6-.52-3.17.43.03.75.16.92.25-.06-.2-.13-.39-.21-.57-.39-.12-.97-.21-1.65-.04Z"/><path fill="#8B62BF" d="M21.51 16.03a2.63 2.63 0 0 0-.39-.06l-1.43-.14-.1.55a2.604 2.604 0 0 1-3.01 2.11 2.604 2.604 0 0 1-2.11-3.01l.022-.222-1.676-.176-.896 3.398c0 .03-.01.06-.01.09l-.29 1.06-1.52 5.73c-.08.32.16.62.48.62h7.85c.29 0 .54-.19.61-.47l1.34-5.07 1.13-4.41Z"/><path fill="#0084CE" d="M29.97 23.42c-.97-.24-2.04-.03-2.83.61l-1.17.96c-.85.7-2.08.7-2.94 0l-1.17-.96c-1.08-.88-2.68-.95-3.84-.17l-1.18.8c-.79.53-1.83.53-2.62 0l-1.18-.8c-1.16-.79-2.76-.72-3.84.17l-1.17.96c-.85.7-2.08.7-2.94 0l-1.17-.96c-.54-.45-1.23-.69-1.92-.71v6.65h27.97v-6.55Z"/><path fill="#573739" d="m20.46 10.437-1.92-.34c-.77-.14-1.54-.627-1.85-1.327a.157.157 0 0 0-.28-.02l-.07.1c-.2.31-.5.53-.85.61-.02.01-.04.01-.07.02-.15.04-.52.21-.64.78l-.26 1.93c-.23 1.71.87 3.08 2.46 3.37 1.59.28 3.1-.62 3.48-2.3l.4-1.81c.14-.81-.141-.942-.4-1.013Z"/><path fill="#fff" d="M16.14 11.52a.1.1 0 1 0 0-.2.1.1 0 0 0 0 .2Z"/><path fill="#00A6ED" d="M19.22 6.84c.93.16 1.74.71 2.23 1.52.48.8.6 1.76.32 2.66l-.39 1.64c-.077.32-.268.582-.52.754a3.392 3.392 0 0 1-1.19 1.886c-.59.46-1.31.71-2.09.71-.22 0-.44-.02-.66-.06a3.51 3.51 0 0 1-2.17-1.31 3.363 3.363 0 0 1-.643-2.416 1.236 1.236 0 0 1-.237-.884l.18-1.69c.07-.98.51-1.84 1.25-2.42a3.25 3.25 0 0 1 2.58-.63l1.34.24Zm-4.717 5.634c-.074 1.572.99 2.812 2.487 3.076.19.03.39.05.58.05 1.36 0 2.56-.87 2.89-2.35l.04-.2.007.001.463-2.211c.13-.72-.36-1.41-1.08-1.54l-3.47-.61c-.72-.13-1.41.36-1.54 1.08l-.377 2.704Z"/><path fill="#000" d="M16.12 10.72c.34.06.57.34.7.64l-.397.042c-.293.03-.579.06-.884.108l-.24-.31c-.1-.13-.06-.32.09-.39.22-.1.49-.13.73-.09ZM19.28 11.28c-.34-.06-.66.13-.88.36.12.062.238.12.355.179.263.13.521.259.784.411l.34-.21c.14-.09.16-.28.05-.4-.17-.17-.41-.29-.65-.34Z"/><path fill="#fff" d="M15.28 11.33c.16-.35.55-.57.95-.5.42.08.71.44.72.84 0 .09-.08.16-.17.14l-1.37-.24c-.11-.02-.18-.14-.13-.24ZM19.89 12.14a.88.88 0 0 0-.72-.79.863.863 0 0 0-.96.54c-.03.08.02.17.11.19l1.37.24c.11.02.21-.07.2-.18Z"/><path fill="#7D4533" d="M15.69 11.47c.05-.3.34-.5.64-.45.3.05.5.34.46.65-.01.05-.03.1-.05.14l-1.06-.19c0-.05 0-.1.01-.15Zm3.77.66c.05-.3-.15-.59-.45-.64-.3-.05-.59.15-.65.44-.01.05-.01.1-.01.15l1.06.19c.03-.04.04-.09.05-.14Z"/><path fill="#000" d="M16.29 11.25c.18.03.29.2.26.37a.37.37 0 0 1-.07.14l-.55-.1c-.01-.05-.02-.1-.01-.15.03-.18.2-.29.37-.26Zm2.68.47a.325.325 0 0 0-.37.26c-.01.06 0 .11.02.15l.55.1a.35.35 0 0 0 .06-.14.325.325 0 0 0-.26-.37Z"/><path fill="#fff" d="M16.18 11.32a.1.1 0 1 1-.2 0 .1.1 0 0 1 .2 0Zm2.7.47a.1.1 0 1 1-.2 0 .1.1 0 0 1 .2 0Z"/><path fill="#3D2123" d="m17.39 11.72-.5.97c-.1.2.02.44.24.48l.47.08c.22.04.42-.15.39-.37l-.14-1.08c-.03-.23-.35-.29-.46-.08Z"/><path fill="#290118" d="M17.22 13.79c-.33-.06-.62-.19-.85-.37-.08-.06-.19.02-.15.11.16.37.49.66.92.73.43.08.84-.08 1.11-.37.07-.07-.01-.19-.1-.16-.28.09-.6.11-.93.06Z"/><path fill="#000" d="M18.929 10.288a.183.183 0 0 0-.018.364 1.355 1.355 0 0 1 .845.352l.009.009.001.001a.182.182 0 0 0 .268-.248h-.001l-.002-.003-.005-.005a1.64 1.64 0 0 0-.29-.223 1.72 1.72 0 0 0-.807-.247ZM15.62 9.986h-.002c-.08.012-.126.157-.08.247.045.09.154.125.244.08l.002-.001.011-.005a1.3 1.3 0 0 1 .249-.075c.17-.034.403-.047.663.032a.182.182 0 1 0 .106-.349 1.73 1.73 0 0 0-1.186.068l-.007.003Z"/></svg>
